X: 30522
T: Olympus Mons
R: slip jig
M: 9/8
K: Eminor
|E2 e edB G2 E|DBB BcB AGF|cEG dcB AGF|BFF GFG AGF|
Eee edB G2 E|DBB BcB AGF|AcE AGF GFE|^DEF GFG AGB|
E2 e edB G2 E|DBB BcB AGF|cEG dcB AGF|BFF GFG AGF|
Eee feB G2 E|DBB BcB AGF|AcE AGF GFE|^DEF GFE E3||
|:c2 E E3 GFE|BcA GFG AGF|c2 E E3 GFE|Bcc cBA GFE|
c2 E E3 GFE|BcA GFG AGF|^DEF GFG AGA|BcB AGF ^D3:|

